Papirus/22x22/mimetypes/application-x-hip.svg

<svg width="22" height="22" version="1.1" xmlns="http://www.w3.org/2000/svg">
 <path d="m4 1.5c-0.554 0-1 0.446-1 1v18c0 0.554 0.446 1 1 1h14c0.554 0 1-0.446 1-1v-13l-6-6z" style="opacity:.2"/>
 <path d="m4 1c-0.554 0-1 0.446-1 1v18c0 0.554 0.446 1 1 1h14c0.554 0 1-0.446 1-1v-13l-6-6z" style="fill:#f36128"/>
 <path d="m19 7.5-6-6v5c0 0.554 0.446 1 1 1z" style="opacity:.2"/>
 <path d="m19 7-6-6v5c0 0.554 0.446 1 1 1z" style="fill:#ebb9a1"/>
 <path d="m4 1c-0.554 0-1 0.446-1 1v0.5c0-0.554 0.446-1 1-1h9v-0.5z" style="fill:#ffffff;opacity:.2"/>
 <path d="m8.4087077 7.49624c-2.1692067-0.0013983-4.001444 0.7265529-5.4087077 1.8522972v2.2037608c1.1502481-1.244762 2.8303971-2.1130152 4.9737192-2.1468892 0.1428863-0.00222 0.2880023-7.246e-4 0.4349885 0.00454 3.3190113 0.1196544 5.5276103 2.8801692 5.5309633 5.7474062 0.0041 3.166426-1.872125 5.32899-5.0353945 5.287891-2.1543015-0.0279-4.2534494-1.5651-4.1997967-3.903643 0.042475-1.856879 1.303122-3.358716 3.3068965-3.408295 1.6196391-0.04003 2.2720937 1.125747 2.2720937 1.847178 0 0.683966-0.3879081 1.565623-1.3409888 1.777796-0.7697642 0.171345-1.8587424-0.670427-1.03644-1.818768-0.8405579-0.03987-1.5735616 0.514319-1.6171549 1.495715-0.084204 1.903131 1.8074934 2.642088 3.016541 2.439777 2.2168957-0.370801 3.0386087-1.875155 3.0285487-3.91843-0.01082-2.137928-1.86748-4.029156-4.2740244-4.054352-1.9262779-0.019994-4.2257286 1.131606-5.0599516 3.643177v3.847908c0.3562814 0.967512 0.9995894 1.891282 1.8904676 2.606691 1.1095324-0.003762 7.1095324-0.003762 8.4636654-0.001113 1.635818-1.244607 2.644891-3.269254 2.645867-5.852894 0.001081-4.265487-2.94736-7.6468789-7.5912923-7.649753z" style="opacity:.2"/>
 <path d="m8.4087077 7.000002c-2.1692067-0.0013983-4.001444 0.7265529-5.4087077 1.8522972v2.2037608c1.1502481-1.244762 2.8303971-2.1130152 4.9737192-2.1468892 0.1428863-0.00222 0.2880023-7.246e-4 0.4349885 0.00454 3.3190113 0.1196544 5.5276103 2.8801692 5.5309633 5.7474062 0.0041 3.166426-1.872125 5.32899-5.0353945 5.287891-2.1543015-0.0279-4.2534494-1.5651-4.1997967-3.903643 0.042475-1.856879 1.303122-3.358716 3.3068965-3.408295 1.6196391-0.04003 2.2720937 1.125747 2.2720937 1.847178 0 0.683966-0.3879081 1.565623-1.3409888 1.777796-0.7697642 0.171345-1.8587424-0.670427-1.03644-1.818768-0.8405579-0.03987-1.5735616 0.514319-1.6171549 1.495715-0.084204 1.903131 1.8074934 2.642088 3.016541 2.439777 2.2168957-0.370801 3.0386087-1.875155 3.0285487-3.91843-0.01082-2.137928-1.86748-4.029156-4.2740244-4.054352-1.9262779-0.019994-4.2257286 1.131606-5.0599516 3.643177v3.847908c0.4456131 1.2101 1.3402318 2.351773 2.6066571 3.102929h6.9871119c2.077922-1.159113 3.405112-3.387024 3.406231-6.350245 0.001081-4.265487-2.94736-7.6468789-7.5912923-7.649753z" style="fill:#e4e4e4"/>
</svg>

<svg xmlns="http://www.w3.org/2000/svg" width="22" height="22" version="1.1">
 <path style="opacity:0.2" d="m4 1.5c-0.554 0-1 0.446-1 1v18c0 0.554 0.446 1 1 1h14c0.554 0 1-0.446 1-1v-13l-6-6z"/>
 <path style="fill:#f36128" d="m4 1c-0.554 0-1 0.446-1 1v18c0 0.554 0.446 1 1 1h14c0.554 0 1-0.446 1-1v-13l-6-6z"/>
 <path style="opacity:0.2" d="m19 7.5-6-6v5c0 0.554 0.446 1 1 1z"/>
 <path style="fill:#ebb9a1" d="m19 7-6-6v5c0 0.554 0.446 1 1 1z"/>
 <path style="fill:#ffffff;opacity:0.2" d="m4 1c-0.554 0-1 0.446-1 1v0.5c0-0.554 0.446-1 1-1h9v-0.5z"/>
 <path style="opacity:0.2" d="M 8.4087,7.4962 C 6.2395,7.4948 4.4073,8.2228 3,9.3485 V 11.552 C 4.1502,10.308 5.8304,9.4393 7.9737,9.4054 8.1166,9.4032 8.2617,9.4047 8.4087,9.4099 11.728,9.5296 13.936,12.29 13.94,15.157 13.944,18.324 12.068,20.486 8.9043,20.445 6.75,20.417 4.6508,18.88 4.7045,16.542 4.747,14.685 6.0076,13.183 8.0114,13.133 9.631,13.093 10.283,14.259 10.283,14.98 10.283,15.664 9.8956,16.546 8.9425,16.758 8.1727,16.93 7.0837,16.088 7.906,14.94 7.0655,14.9 6.3325,15.454 6.2889,16.435 6.2047,18.338 8.0964,19.077 9.3054,18.875 11.522,18.504 12.344,17 12.334,14.957 12.323,12.819 10.466,10.927 8.06,10.902 6.1337,10.882 3.8342,12.034 3,14.545 V 18.393 C 3.3563,19.361 3.9996,20.285 4.8905,21 6,20.996 12,20.996 13.354,20.999 14.99,19.754 15.999,17.73 16,15.146 16.001,10.881 13.053,7.4991 8.4087,7.4962 Z"/>
 <path style="fill:#e4e4e4" d="M 8.4087,7 C 6.2395,6.9986 4.4073,7.7266 3,8.8523 V 11.056 C 4.1502,9.8113 5.8304,8.943 7.9737,8.9092 8.1166,8.907 8.2617,8.9084 8.4087,8.9137 11.728,9.0334 13.936,11.794 13.94,14.661 13.944,17.828 12.068,19.99 8.9043,19.949 6.75,19.921 4.6508,18.384 4.7045,16.045 4.747,14.188 6.0076,12.687 8.0114,12.637 9.631,12.597 10.283,13.763 10.283,14.484 10.283,15.168 9.8956,16.05 8.9425,16.262 8.1727,16.433 7.0837,15.592 7.906,14.443 7.0655,14.403 6.3325,14.958 6.2889,15.939 6.2047,17.842 8.0964,18.581 9.3054,18.379 11.522,18.008 12.344,16.504 12.334,14.46 12.323,12.322 10.466,10.431 8.06,10.406 6.1337,10.386 3.8342,11.538 3,14.049 V 17.897 C 3.4456,19.107 4.3402,20.249 5.6067,21 H 12.594 C 14.672,19.841 15.999,17.613 16,14.65 16.001,10.384 13.053,7.0029 8.4087,7 Z"/>
</svg>
